resources/svg/gallery-line.svg

<svg fill="currentColor" viewBox="0 0 24 24" xmlns="http://www.w3.org/2000/svg"><path d="M20 13C18.3221 13 16.7514 13.4592 15.4068 14.2587C16.5908 15.6438 17.5269 17.2471 18.1465 19H20V13ZM16.0037 19C14.0446 14.3021 9.4079 11 4 11V19H16.0037ZM4 9C7.82914 9 11.3232 10.4348 13.9738 12.7961C15.7047 11.6605 17.7752 11 20 11V3H21.0082C21.556 3 22 3.44495 22 3.9934V20.0066C22 20.5552 21.5447 21 21.0082 21H2.9918C2.44405 21 2 20.5551 2 20.0066V3.9934C2 3.44476 2.45531 3 2.9918 3H6V1H8V5H4V9ZM18 1V5H10V3H16V1H18ZM16.5 10C15.6716 10 15 9.32843 15 8.5C15 7.67157 15.6716 7 16.5 7C17.3284 7 18 7.67157 18 8.5C18 9.32843 17.3284 10 16.5 10Z"/></svg>

<svg xmlns="http://www.w3.org/2000/svg" viewBox="0 0 24 24" fill="currentColor">
    <g>
        <path fill="none" d="M0 0h24v24H0z"/>
        <path d="M20 13c-1.678 0-3.249.46-4.593 1.259A14.984 14.984 0 0 1 18.147 19H20v-6zm-3.996 6C14.044 14.302 9.408 11 4 11v8h12.004zM4 9c3.83 0 7.323 1.435 9.974 3.796A10.949 10.949 0 0 1 20 11V3h1.008c.548 0 .992.445.992.993v16.014a1 1 0 0 1-.992.993H2.992A.993.993 0 0 1 2 20.007V3.993A1 1 0 0 1 2.992 3H6V1h2v4H4v4zm14-8v4h-8V3h6V1h2zm-1.5 9a1.5 1.5 0 1 1 0-3 1.5 1.5 0 0 1 0 3z"/>
    </g>
</svg>
